src/components/atoms/Icon/svgs/gitlab.svg

<svg width="24" height="24" viewBox="0 0 24 24" fill="none" xmlns="http://www.w3.org/2000/svg">
    <g clip-path="url(#clip0_210_1208)">
        <path
            d="M22.65 14.39L12 22.13L1.35002 14.39C1.20725 14.285 1.10134 14.1375 1.04746 13.9687C0.993572 13.7999 0.99447 13.6183 1.05002 13.45L2.27002 9.67L4.71002 2.16C4.73369 2.09881 4.77136 2.04401 4.82002 2C4.89926 1.92762 5.0027 1.88749 5.11002 1.88749C5.21734 1.88749 5.32078 1.92762 5.40002 2C5.45141 2.04966 5.48927 2.11162 5.51002 2.18L7.95002 9.67H16.05L18.49 2.16C18.5137 2.09881 18.5514 2.04401 18.6 2C18.6793 1.92762 18.7827 1.88749 18.89 1.88749C18.9973 1.88749 19.1008 1.92762 19.18 2C19.2314 2.04966 19.2693 2.11162 19.29 2.18L21.73 9.69L23 13.45C23.0505 13.6235 23.0438 13.8086 22.9807 13.978C22.9177 14.1473 22.8017 14.2918 22.65 14.39Z"
            stroke="currentColor" stroke-width="2" stroke-linecap="round" stroke-linejoin="round" />
    </g>
    <defs>
        <clipPath id="clip0_210_1208">
            <rect width="24" height="24" fill="white" />
        </clipPath>
    </defs>
</svg>

<svg viewBox="0 0 24 24" fill="none" xmlns="http://www.w3.org/2000/svg">
    <g clip-path="url(#clip0_210_1208)">
        <path d="M22.65 14.39L12 22.13 1.35 14.39a.84.84 0 01-.3-.94l1.22-3.78 2.44-7.51A.43.43 0 015.4 2a.42.42 0 01.11.18l2.44 7.49h8.1l2.44-7.51a.43.43 0 01.69-.16.42.42 0 01.11.18l2.44 7.51L23 13.45a.84.84 0 01-.35.94z" stroke="currentColor" stroke-width="2" stroke-linecap="round" stroke-linejoin="round"/>
    </g>
    <defs>
        <clipPath id="clip0_210_1208">
            <path fill="#fff" d="M0 0h24v24H0z"/>
        </clipPath>
    </defs>
</svg>
